JackSchool/img/steps/05.svg

<svg width="45" height="27" viewBox="0 0 45 27" fill="none" xmlns="http://www.w3.org/2000/svg">
<path d="M11.11 26.56C8.94 26.56 7.015 26.0583 5.335 25.055C3.67833 24.0283 2.37167 22.5583 1.415 20.645C0.481667 18.7083 0.015 16.41 0.015 13.75C0.015 11.09 0.481667 8.80333 1.415 6.89C2.37167 4.95333 3.67833 3.48333 5.335 2.48C7.015 1.45333 8.94 0.939999 11.11 0.939999C13.28 0.939999 15.1933 1.45333 16.85 2.48C18.53 3.48333 19.8367 4.95333 20.77 6.89C21.7267 8.80333 22.205 11.09 22.205 13.75C22.205 16.41 21.7267 18.7083 20.77 20.645C19.8367 22.5583 18.53 24.0283 16.85 25.055C15.1933 26.0583 13.28 26.56 11.11 26.56ZM11.11 19.945C12.9767 19.945 13.91 17.88 13.91 13.75C13.91 9.62 12.9767 7.555 11.11 7.555C9.24333 7.555 8.31 9.62 8.31 13.75C8.31 17.88 9.24333 19.945 11.11 19.945ZM34.2584 10.145C37.6884 10.145 40.2084 10.8683 41.8184 12.315C43.4517 13.7383 44.2684 15.6167 44.2684 17.95C44.2684 19.49 43.8601 20.9133 43.0434 22.22C42.2501 23.5033 41.0134 24.5533 39.3334 25.37C37.6534 26.1633 35.5651 26.56 33.0684 26.56C31.3417 26.56 29.6151 26.3733 27.8884 26C26.1851 25.6267 24.6917 25.0783 23.4084 24.355L26.2084 18.265C27.2351 18.8483 28.3084 19.2917 29.4284 19.595C30.5717 19.8983 31.6801 20.05 32.7534 20.05C33.7101 20.05 34.4801 19.8867 35.0634 19.56C35.6701 19.21 35.9734 18.7317 35.9734 18.125C35.9734 17.5417 35.7051 17.11 35.1684 16.83C34.6317 16.5267 33.6634 16.375 32.2634 16.375H25.1584L26.3834 1.5H42.6584V7.73H33.1734L32.9984 10.145H34.2584Z" fill="#FFC601"/>
</svg>

<svg width="45" height="27" fill="none" xmlns="http://www.w3.org/2000/svg"><path d="M11.11 26.56c-2.17 0-4.095-.502-5.775-1.505-1.657-1.027-2.963-2.497-3.92-4.41-.933-1.937-1.4-4.235-1.4-6.895 0-2.66.467-4.947 1.4-6.86.957-1.937 2.263-3.407 3.92-4.41C7.015 1.453 8.94.94 11.11.94c2.17 0 4.083.513 5.74 1.54 1.68 1.003 2.987 2.473 3.92 4.41.957 1.913 1.435 4.2 1.435 6.86s-.478 4.958-1.435 6.895c-.933 1.913-2.24 3.383-3.92 4.41-1.657 1.003-3.57 1.505-5.74 1.505zm0-6.615c1.867 0 2.8-2.065 2.8-6.195 0-4.13-.933-6.195-2.8-6.195-1.867 0-2.8 2.065-2.8 6.195 0 4.13.933 6.195 2.8 6.195zm23.148-9.8c3.43 0 5.95.723 7.56 2.17 1.634 1.423 2.45 3.302 2.45 5.635 0 1.54-.408 2.963-1.225 4.27-.793 1.283-2.03 2.333-3.71 3.15-1.68.793-3.768 1.19-6.265 1.19a24.45 24.45 0 01-5.18-.56c-1.703-.373-3.196-.922-4.48-1.645l2.8-6.09c1.027.583 2.1 1.027 3.22 1.33 1.144.303 2.252.455 3.325.455.957 0 1.727-.163 2.31-.49.607-.35.91-.828.91-1.435 0-.583-.268-1.015-.805-1.295-.536-.303-1.505-.455-2.905-.455h-7.105L26.383 1.5h16.275v6.23h-9.485l-.175 2.415h1.26z" fill="#FFC601"/></svg>
